!!!COM: Bartok, Bela
!!!OTL: Minor and Major
!!!ONM: 103
!!!OPR: Mikrokosmos, Vol. IV
!! Boosey & Hawkes Ltd. (London) 1955, copyright 1940 pp.14-15
!! irregular meter signature
**kern	**kern
*M9/8	*M9/8
=1	=1
8AA	4.r
8BB	.
8C	.
8D	4.r
8E	.
8D	.
8C	4.r
8BB	.
8AA	.
=2	=2
1BB	8B
.	8c#
.	8d#
.	8e
.	8f#
.	8e
.	8d#
.	8c#
8Dn	8B
=3	=3
8C	1e
8BB	.
8C	.
8D	.
8E	.
8C	.
8D	.
8AA	.
8E	8c#
=4	=4
1BB	8d#
.	8B
.	8d#
.	8e
.	8f#
.	8d#
.	8c#
.	8f#
8D	8B
=5	=5
*M8/8	*M8/8
8C	8e
8AA	8c#
8D	8f#
8C	8e
8AA	8c#
8C	8e
8AA	8c#
8C	8e
=6	=6
4D	4f#
8C	8e
8AA	8c#
8C	8e
4AA	4c#
8C	8e
=7	=7
*M6/8	*M6/8
8D	8f#
8AA	8c#
8C	8e
8D	8f#
8AA	8c#
8C	8e
=8	=8
*M5/8	*M5/8
4D	4f#
8Cn	8e
8AA	8c#
8C	8e
=9	=9
8r	4c#
8r	.
8C	8e
8AA	8c#
8C	8e
=10	=10
4AA	8r
.	8r
8C	8e
8AA	8c#
8E	8B
=11	=11
*M7/8	*M7/8
8C	8e
8AA	8c#
8E	8B
8C	8e
8r	4c#
8AA	.
8E	8B
=12	=12
*M5/8	*M5/8
8r	8c#
8C	8e
8AA	4c#
4E	.
.	8B
=13	=13
8r	[2c#
8r	.
8D	.
8E	.
8D	8c#_
=14	=14
4E	2c#_
8D	.
8E	.
8D	8c#_
=15	=15
4E	2c#_
8D	.
8E	.
8D	8c#_
=16	=16
4E	2c#_
8D	.
8E	.
8D	8c#_
=17	=17
4E	2c#_
4D	.
8r	8c#_
=18	=18
2r	2c#_
8r	8c#]
=19	=19
*M9/8	*M9/8
{4.cn	8r
.	{8c#
.	8d#
[4.A	8f#
.	8d#
.	8f#
8A]	4d#
4e}	.
.	8c#}
=20	=20
[{4.A	8r
.	{8d#
.	8f#
4A]	[4.d#
8c	.
[4.e	4d#]
.	8c#
=21	=21
4.e}]	4B
.	8c#
{4cn	[2.d#
8dn	.
8c	.
4d	.
=22	=22
4A	4.d_
8B	.
[4.c	4d]
.	8c#
4c]	4.d#}
8dn}	.
=23	=23
[{4.A	8r
.	8r
.	{8F#
4A]	[4.D#
8cn	.
4.e	4D#]
.	8C#}
=24	=24
4.A}	8r
.	{8B
.	8D#
8r	[4.F#
{8A	.
8c	.
[4.e	8F#]
.	8D#
.	8C#
=25	=25
*M6/8	*M6/8
4.e_	4BB
.	8C#
8e]	[4.D#
8dn	.
8c	.
=26	=26
4B	4.D#}]
8d	.
8B	{4D#
4A}	.
.	8F#}
=27	=27
{8B	{4D#
8d	.
8e	8C#
8d	8BB
8B	8D#
8A}	8F#}
=28	=28
*M9/8	*M9/8
[{2.B	[2.D#
8B]	4D#]
8A	.
8F#	8r
=29	=29
*M5/8	*M5/8
8E}	2r
8C	.
8E	.
8C	.
8AA	8r
=30	=30
2BB	8B
.	8d#
.	8f#
.	8d#
8Dn	8B
=31	=31
8C	2e
8AA	.
8E	.
8C	.
8AA	8c#
=32	=32
2BB	8d#
.	8B
.	8f#
.	8d#
8Dn	8B
=33	=33
8C	8e
8AA	8c#
8D	8f#
8B	8d#
8E	8B
=34	=34
8C	8e
8AA	8c#
8D	8f#
8BB	8d#
8E	8B
=35	=35
8C	8e
8AA	8c#
8D	8f#
8BB	8d#
8E	8B
=36	=36
8C	8e
8AA	8c#
8D	8f#
8BB	8d#
8E	8B
=37	=37
8C	8e
8AA	8c#
8D	8f#
8BB	8d#
8E	8B
=38	=38
8C	8e
8AA	8c#
8D	8f#
8BB	8d#
8E	8B
=39	=39
8C	8e
8AA	8c#
8D	8f#
8BB	8d#
8E	8B
=40	=40
2r	2r
8r	8r
=41	=41
2r	8ee
.	8ff#
.	8ee
.	8dd#
8r	8cc#
=42	=42
8BB	2b
8AA	.
8BB	.
8C	.
8D	8ee
=43	=43
[2E	[2b
8E_	8b_
=44	=44
2E_	2b_
8E]	8b]
==	==
*-	*-
